X:103
T: ACH HANNCHEN SCHOENSTES HANNCHEN
N: E0056E
O: Europa, Mitteleuropa, Deutschland, Limburg; Unter - Lahnkreis
R: erzaehlendes Volks - Lied, Sage, Kinds - Mord
M: 3/4
L: 1/8
K: G
D2 | DBB2AG | FAA2
AB | cee2dc | B2z2
AB | cee2dc | Bdd2
cB | Add2c2 | B4

